cellphone-lock.svg

<svg fill="currentColor" viewBox="0 0 24 24"><path d="M17 1H7a2 2 0 0 0-2 2v3h2V4h10v16H7v-2H5v3a2 2 0 0 0 2 2h10a2 2 0 0 0 2-2V3a2 2 0 0 0-2-2M8.8 11V9.5C8.8 8.1 7.4 7 6 7S3.2 8.1 3.2 9.5V11c-.6 0-1.2.6-1.2 1.2v3.5c0 .7.6 1.3 1.2 1.3h5.5c.7 0 1.3-.6 1.3-1.2v-3.5c0-.7-.6-1.3-1.2-1.3m-1.3 0h-3V9.5c0-.8.7-1.3 1.5-1.3s1.5.5 1.5 1.3z"/></svg>

<svg  viewBox="0 0 24 24" fill="currentColor"><path  d="M17,1H7A2,2 0 0,0 5,3V6H7V4H17V20H7V18H5V21A2,2 0 0,0 7,23H17A2,2 0 0,0 19,21V3A2,2 0 0,0 17,1M8.8,11V9.5C8.8,8.1 7.4,7 6,7C4.6,7 3.2,8.1 3.2,9.5V11C2.6,11 2,11.6 2,12.2V15.7C2,16.4 2.6,17 3.2,17H8.7C9.4,17 10,16.4 10,15.8V12.3C10,11.6 9.4,11 8.8,11M7.5,11H4.5V9.5C4.5,8.7 5.2,8.2 6,8.2C6.8,8.2 7.5,8.7 7.5,9.5V11Z"/></svg>
